X:108
T:Blue Bells of Challon. LIT.108, The
T:Bluebells of Scotland. LIT.108, The
M:4/4
Q:1/4=150
L:1/8
B:Wm. Litten MS, 1802
Z:Village Music Project 2017 Anne Wride
K:G
((3def) | g6 fe | d4 ef g2 | b3b c2A2 | G4 de f2 |
g6 fe | d4 ef g2 | b3b c'2 ba | g6 dc |
B2G2B2d2 | g4e2 fg | f2d2e2c2 | d6g2 |
g6fe | d4c2ec | B2GB c2 BA | G6 |]

